X:51
M:4/4
L:1/4
K:G
G3/2 A/ B G | A F G2 | d d e B/c/ | d d B2 | B A c B | A G/A/ B2 | !sintro!d3/2 c/ B G | A F G2 !eintro!|]
